X:0813
T:Here's a Health to them that's awa.
M:6/8
N:3/4 printed
L:1/8
Q:3/8=60
I: :: ||
Z:Jack Campin * www.campin.me.uk * 2009
K:D
z2z f2e|dA2 B>AF|   A3      \
    f2e|d2A Bgf |{f}e3      \
    f2e|d2A B>cd|   cBA Hd2 \
      A|FDF EDE |   D3   F<A||
D|A2A/A/ B>AF|   A3    z2   \
D|A2A/A/ Bgf |{f}e3    z2   \
D|A2A/A/ B>cd|   c>BA Hd2   \
A|FD>F   ED>F|   D3    F<Az|]
<end>
<start>
